nova/resources/svg/fluent/navigation.svg

<svg viewBox="0 0 24 24" fill="none" xmlns="http://www.w3.org/2000/svg">
<path d="M2.75254 17.9997H21.2525C21.6668 17.9997 22.0025 18.3355 22.0025 18.7497C22.0025 19.1294 21.7204 19.4432 21.3543 19.4928L21.2525 19.4997H2.75254C2.33832 19.4997 2.00254 19.1639 2.00254 18.7497C2.00254 18.37 2.28469 18.0562 2.65077 18.0065L2.75254 17.9997H21.2525H2.75254ZM2.75254 11.5027H21.2525C21.6668 11.5027 22.0025 11.8385 22.0025 12.2527C22.0025 12.6324 21.7204 12.9462 21.3543 12.9959L21.2525 13.0027H2.75254C2.33832 13.0027 2.00254 12.6669 2.00254 12.2527C2.00254 11.873 2.28469 11.5592 2.65077 11.5095L2.75254 11.5027H21.2525H2.75254ZM2.75168 5.00293H21.2517C21.6659 5.00293 22.0017 5.33872 22.0017 5.75293C22.0017 6.13263 21.7195 6.44642 21.3535 6.49608L21.2517 6.50293H2.75168C2.33746 6.50293 2.00168 6.16714 2.00168 5.75293C2.00168 5.37323 2.28383 5.05944 2.64991 5.00978L2.75168 5.00293H21.2517H2.75168Z" fill="currentColor"/>
</svg>

<svg viewBox="0 0 24 24" fill="none" xmlns="http://www.w3.org/2000/svg"><path d="M2.753 18h18.5a.75.75 0 01.102 1.493l-.102.007h-18.5a.75.75 0 01-.102-1.493L2.753 18h18.5-18.5zm0-6.497h18.5a.75.75 0 01.102 1.493l-.102.007h-18.5a.75.75 0 01-.102-1.493l.102-.007h18.5-18.5zm-.001-6.5h18.5a.75.75 0 01.102 1.493l-.102.007h-18.5A.75.75 0 012.65 5.01l.102-.007h18.5-18.5z" fill="currentColor"/></svg>
